world_stage/static/flags/rect/mdv.svg

<svg height="640" viewBox="0 0 960 640" width="960" xmlns="http://www.w3.org/2000/svg" xmlns:xlink="http://www.w3.org/1999/xlink"><clipPath id="a"><path d="m0 480h720v-480h-720z" transform="translate(-390.00001 -320.00001)"/></clipPath><clipPath id="b"><path d="m0 480h720v-480h-720z" transform="translate(-420.00001 -320.00001)"/></clipPath><path d="m0 0h720v480h-720z" fill="#d21034" transform="matrix(1.3333333 0 0 -1.3333333 0 640)"/><path d="m120 360h480v-240h-480z" fill="#007e3a" transform="matrix(1.3333333 0 0 -1.3333333 0 640)"/><path clip-path="url(#a)" d="m0 0c44.183 0 80-35.817 80-80s-35.817-80-80-80-80 35.817-80 80 35.817 80 80 80" fill="#fff" transform="matrix(1.3333333 0 0 -1.3333333 520 213.33333)"/><path clip-path="url(#b)" d="m0 0c44.183 0 80-35.817 80-80s-35.817-80-80-80-80 35.817-80 80 35.817 80 80 80" fill="#007e3a" transform="matrix(1.3333333 0 0 -1.3333333 560 213.33333)"/></svg>

<?xml version="1.0" encoding="UTF-8" standalone="no"?>
<!-- Created with Inkscape (http://www.inkscape.org/) -->

<svg
   version="1.1"
   id="svg1"
   width="960"
   height="640"
   viewBox="0 0 960 640"
   sodipodi:docname="mv.ai"
   xmlns:inkscape="http://www.inkscape.org/namespaces/inkscape"
   xmlns:sodipodi="http://sodipodi.sourceforge.net/DTD/sodipodi-0.dtd"
   xmlns="http://www.w3.org/2000/svg"
   xmlns:svg="http://www.w3.org/2000/svg">
  <defs
     id="defs1">
    <clipPath
       clipPathUnits="userSpaceOnUse"
       id="clipPath4">
      <path
         d="M 0,480 H 720 V 0 H 0 Z"
         transform="translate(-390.00001,-320.00001)"
         id="path4" />
    </clipPath>
    <clipPath
       clipPathUnits="userSpaceOnUse"
       id="clipPath6">
      <path
         d="M 0,480 H 720 V 0 H 0 Z"
         transform="translate(-420.00001,-320.00001)"
         id="path6" />
    </clipPath>
  </defs>
  <sodipodi:namedview
     id="namedview1"
     pagecolor="#ffffff"
     bordercolor="#000000"
     borderopacity="0.25"
     inkscape:showpageshadow="2"
     inkscape:pageopacity="0.0"
     inkscape:pagecheckerboard="0"
     inkscape:deskcolor="#d1d1d1">
    <inkscape:page
       x="0"
       y="0"
       inkscape:label="1"
       id="page1"
       width="960"
       height="640"
       margin="0"
       bleed="0" />
  </sodipodi:namedview>
  <g
     id="layer-MC0"
     inkscape:groupmode="layer"
     inkscape:label="Flag of Maldives">
    <path
       id="path1"
       d="M 0,0 H 720 V 480 H 0 Z"
       style="fill:#d21034;fill-opacity:1;fill-rule:nonzero;stroke:none"
       transform="matrix(1.3333333,0,0,-1.3333333,0,640)" />
    <path
       id="path2"
       d="M 120,360 H 600 V 120 H 120 Z"
       style="fill:#007e3a;fill-opacity:1;fill-rule:nonzero;stroke:none"
       transform="matrix(1.3333333,0,0,-1.3333333,0,640)" />
    <path
       id="path3"
       d="m 0,0 c 44.183,0 80,-35.817 80,-80 0,-44.183 -35.817,-80 -80,-80 -44.183,0 -80,35.817 -80,80 0,44.183 35.817,80 80,80"
       style="fill:#ffffff;fill-opacity:1;fill-rule:nonzero;stroke:none"
       transform="matrix(1.3333333,0,0,-1.3333333,520,213.33333)"
       clip-path="url(#clipPath4)" />
    <path
       id="path5"
       d="m 0,0 c 44.183,0 80,-35.817 80,-80 0,-44.183 -35.817,-80 -80,-80 -44.183,0 -80,35.817 -80,80 0,44.183 35.817,80 80,80"
       style="fill:#007e3a;fill-opacity:1;fill-rule:nonzero;stroke:none"
       transform="matrix(1.3333333,0,0,-1.3333333,560,213.33333)"
       clip-path="url(#clipPath6)" />
  </g>
</svg>
